package/converter/svg/thin/arrow-up-from-line.svg

<svg xmlns="http://www.w3.org/2000/svg" viewBox="0 0 384 512"><!-- Font Awesome Pro 6.0.0-alpha2 by @fontawesome - https://fontawesome.com License - https://fontawesome.com/license (Commercial License) --><path d="M197.656 34.344C194.531 31.219 189.469 31.219 186.344 34.344L34.344 186.344C32.781 187.906 32 189.938 32 192S32.781 196.094 34.344 197.656C37.469 200.781 42.531 200.781 45.656 197.656L184 59.312V376C184 380.406 187.578 384 192 384S200 380.406 200 376V59.312L338.344 197.656C341.469 200.781 346.531 200.781 349.656 197.656S352.781 189.469 349.656 186.344L197.656 34.344ZM376 464H8C3.582 464 0 467.582 0 472S3.582 480 8 480H376C380.418 480 384 476.418 384 472S380.418 464 376 464Z"/></svg>

<svg xmlns="http://www.w3.org/2000/svg" viewBox="0 0 384 512"><!--! Font Awesome Pro 6.6.0 by @fontawesome - https://fontawesome.com License - https://fontawesome.com/license (Commercial License) Copyright 2024 Fonticons, Inc. --><path d="M197.7 34.3c-3.1-3.1-8.2-3.1-11.3 0l-136 136c-3.1 3.1-3.1 8.2 0 11.3s8.2 3.1 11.3 0L184 59.3 184 376c0 4.4 3.6 8 8 8s8-3.6 8-8l0-316.7L322.3 181.7c3.1 3.1 8.2 3.1 11.3 0s3.1-8.2 0-11.3l-136-136zM8 464c-4.4 0-8 3.6-8 8s3.6 8 8 8l368 0c4.4 0 8-3.6 8-8s-3.6-8-8-8L8 464z"/></svg>
